Apricity Icons/16/panel/ubuntuone-client-updating.svg

<svg xmlns="http://www.w3.org/2000/svg" width="16" height="16"><defs><style id="current-color-scheme" type="text/css"></style></defs><path d="M6 3a4 4 0 0 0-4 4 4 4 0 0 0 .006.172A3 3 0 0 0 0 10a3 3 0 0 0 3 3h10a3 3 0 0 0 3-3 3 3 0 0 0-2.01-2.828A3 3 0 0 0 14 7a3 3 0 0 0-3-3 3 3 0 0 0-1.8.605A4 4 0 0 0 6 3zm2.5 3L10 8H9v2H8V8H7l1.5-2z" fill="currentColor" color="#dfdfdf"/></svg>

<svg xmlns="http://www.w3.org/2000/svg" width="16" height="16" version="1.1">
 <defs>
  <style id="current-color-scheme" type="text/css">
   .ColorScheme-Text { color:#dfdfdf; } .ColorScheme-Highlight { color:#4285f4; }
  </style>
 </defs>
 <path style="fill:currentColor" class="ColorScheme-Text" d="M 6 3 A 4 4 0 0 0 2 7 A 4 4 0 0 0 2.0058594 7.171875 A 3 3 0 0 0 0 10 A 3 3 0 0 0 3 13 L 13 13 A 3 3 0 0 0 16 10 A 3 3 0 0 0 13.990234 7.171875 A 3 3 0 0 0 14 7 A 3 3 0 0 0 11 4 A 3 3 0 0 0 9.1992188 4.6054688 A 4 4 0 0 0 6 3 z M 8.5 6 L 10 8 L 9 8 L 9 10 L 8 10 L 8 8 L 7 8 L 8.5 6 z"/>
</svg>
